X:21
T:Malbrouk. JJo.021
T:For He’s a Jolly Good Fellow,aka. JJo.021
S:J.Jones MS,1801,N.Shrops.
N:…and so say all of us!
A:N Shropshire
Z:Neil Brookes 2006
M:6/8
L:1/8
Q:3/8=110
K:C
c|e2ee2d|f3e>fe|d2d d>cd|e3c2c|!
e2ee2d|f3e2g|e2c d>cd|c3c2::!
g|g2ea2a|g3g2g|g2ea2a|g3g2c|!
e2ee2d|f3e>fe|d2dd>cd|e3c2c|!
e2ee2d|f3e2g|e2cd>cd|c3c2:|

